!!!COM: Palestrina, Giovanni Perluigi da
!!!OPR: Missa O magnum mysterium
!!!OMD: Kyrie II
!!!OTL: alt Kyrie
**kern	**kern	**kern	**kern	**kern
*Ibass	*Itenor	*Icalto	*Icalto	*Icant
!Bassus	!Tenor	!Altus 2	!Altus 1	!Cantus
*clefF4	*clefGv2	*clefG2	*clefG2	*clefG2
*k[]	*k[]	*k[]	*k[]	*k[]
*E:phr	*E:phr	*E:phr	*E:phr	*E:phr
*M4/2	*M4/2	*M4/2	*M4/2	*M4/2
=35	=35	=35	=35	=35
1r	0r	0A	0r	0r
[1A	.	.	.	.
=36	=36	=36	=36	=36
1A]	0r	1c	0r	0r
1G	.	[1d	.	.
=37	=37	=37	=37	=37
0F	0r	2d]	0A	0a
.	.	4c	.	.
.	.	4B	.	.
.	.	2c	.	.
.	.	2d	.	.
=38	=38	=38	=38	=38
1E	0r	1e	1c	1g
1D	.	1A	1d	1f
=39	=39	=39	=39	=39
2.A	0r	2r	1c	1e
.	.	2A	.	.
8G	.	.	.	.
8F	.	.	.	.
4E	.	2B	1e	1g
4D	.	.	.	.
2E	.	2B	.	.
=40	=40	=40	=40	=40
4D	0r	2d	2.f	2.a
4E	.	.	.	.
4F	.	2.c	.	.
4G	.	.	4e	4b
2A	.	.	4c	2cc
.	.	4A	4d	.
2G	.	2B	2e	[2b
=41	=41	=41	=41	=41
2F	0r	2c	1f	4b]
.	.	.	.	4a
2D	.	2d	.	1a
1E	.	1B	1e	.
.	.	.	.	2g#
=42	=42	=42	=42	=42
0AA	0A	2r	2c	1a
.	.	2A	2.e	.
.	.	1c	.	2r
.	.	.	4d	.
.	.	.	[2c	2e
=43	=43	=43	=43	=43
0r	1G	1.d	2c]	1g
.	.	.	2B	.
.	1F	.	1A	1a
.	.	2c	.	.
=44	=44	=44	=44	=44
0r	1E	1e	2B	1g
.	.	.	1c	.
.	1G	2d	.	2.g
.	.	[2e	2B	.
.	.	.	.	4f
=45	=45	=45	=45	=45
2r	2.A	4e]	1c	2e
.	.	4d	.	.
1A	.	4c	.	2.f
.	4B	4B	.	.
.	2c	2A	1r	.
.	.	.	.	4e
2G	[2B	2B	.	[2e
=46	=46	=46	=46	=46
1F	4B]	2c	0r	2e]
.	4A	.	.	.
.	1A	2A	.	2d
1E	.	2.B	.	1e
.	2G#	.	.	.
.	.	4c	.	.
=47	=47	=47	=47	=47
1D	1A	1d	0f	1r
2.F	2r	2.A	.	[1cc
.	[2A	.	.	.
4G	.	4B	.	.
=48	=48	=48	=48	=48
1A	4A]	4c	1e	1cc]
.	4B	4d	.	.
.	2c	4e	.	.
.	.	4f	.	.
1r	1G	1g	2.d	1b
.	.	.	4c	.
=49	=49	=49	=49	=49
0r	2.D	2.f	4d	2.a
.	.	.	4e	.
.	.	.	1f	.
.	4E	4e	.	4g
.	4F	2d	.	4a
.	4G	.	.	4b
.	4A	4c	4e	[2cc
.	4B	4B	4d	.
=50	=50	=50	=50	=50
0r	2c	1A	2e	4cc]
.	.	.	.	4b
.	2F	.	2.f	1a
.	1B-	1d	.	.
.	.	.	4e	.
.	.	.	[2d	2g
=51	=51	=51	=51	=51
0F	1.A	1r	2d]	1a
.	.	.	4c	.
.	.	.	4B	.
.	.	[1c	4A	2r
.	.	.	4B	.
.	2F	.	4c	[2a
.	.	.	4d	.
=52	=52	=52	=52	=52
1E	1G	1c]	2e	2a]
.	.	.	2c	1g
2.D	1d	1B	[1d	.
.	.	.	.	4f
4C	.	.	.	4e
=53	=53	=53	=53	=53
4D	1r	2.A	2d]	4f
4E	.	.	.	4g
1F	.	.	2c	1a
.	.	4G	.	.
.	[1c	4A	1r	.
.	.	4B	.	.
4E	.	4c	.	2g
4D	.	4d	.	.
=54	=54	=54	=54	=54
4C	1c]	1e	0g	0r
4D	.	.	.	.
4E	.	.	.	.
4F	.	.	.	.
2G	1B	[1d	.	.
2GG	.	.	.	.
=55	=55	=55	=55	=55
1D	2.A	1d]	1f	1r
.	4G	.	.	.
2.AA	4A	2.c	2.e	[1cc
.	4B	.	.	.
.	[2c	.	.	.
4BB	.	8B	4d	.
.	.	8A	.	.
=56	=56	=56	=56	=56
2.C	2c]	2G	4e	1cc]
.	.	.	4f	.
.	4B	2.E	2.g	.
4D	4A	.	.	.
1E	2.G	.	.	1b
.	.	4F	4f	.
.	.	2G	[2e	.
.	4E	.	.	.
=57	=57	=57	=57	=57
1r	1F	1A	2e]	2.a
.	.	.	2d	.
.	.	.	.	4g
[1AA	1E	[1c	[1e	4a
.	.	.	.	4b
.	.	.	.	[2cc
=58	=58	=58	=58	=58
1AA]	2r	1c]	0e]	4cc]
.	.	.	.	4b
.	1e	.	.	1a
1E	.	1B	.	.
.	2d	.	.	2g#
=59	=59	=59	=59	=59
0AA	2.c	2.A	1r	0a
.	4B	4G	.	.
.	1A	4A	[1c	.
.	.	4B	.	.
.	.	[2c	.	.
=60	=60	=60	=60	=60
2.C	2G	4c]	1c]	0e
.	.	4B	.	.
.	2E	1A	.	.
4D	.	.	.	.
1E	2r	.	1B	.
.	2E	2G#	.	.
=61	=61	=61	=61	=61
1AA	2E	2A	2.A	2.cc
.	2C	1c	.	.
.	.	.	4G	4b
2r	1F	.	4A	2a
.	.	.	4B	.
2AA	.	2A	[2c	2a
=62	=62	=62	=62	=62
2C	0E	1.e	2c]	1g
2GG	.	.	2B	.
[1AA	.	.	1A	[1cc
.	.	2d	.	.
=63	=63	=63	=63	=63
1AA]	0A	0c	0e	2cc]
.	.	.	.	2b
1AA	.	.	.	1a
=64	=64	=64	=64	=64
[0E	[0G#	[0B	[0e	[0b
=65	=65	=65	=65	=65
0E]	0G#]	0B]	0e]	0b]
==	==	==	==	==
*-	*-	*-	*-	*-
!!!CDT: 1525/^1526/-1594/2/2
!!!OCY: Italia
!!!AGN: Mass (Parody)
!!!AST: renaissance, vocal
!!!ASW: Motet 1569 (Palestrina)
!!!PWK: Masses, Book 4
!!!RNB: Cadence finals: A,C,G,F
!!!YOR: Le Opere Complete, v. 10, p. 150
!!!YOO: Rome, Italy: Fratelli Scalera
!!!END: 1992//
!!!EED: John Miller
!!!YEC: Copyright 2000, John Miller
!!!YEN: United States of America
!!!YEM: Rights to all derivative electronic formats reserved.
!!!YEM: Refer to licensing agreement for further details.
!!!YEM: This file must be accompanied by the licensing agreement.
!!!YEM: A copy of the licensing agreement may be found at http://www.music-cog.ohio-state.edu/HumdrumDatabases/Palestrina/license.txt
!!!EMD: converted to Humdrum by Bret Aarden
